X: 31
T: Faral O'Gara
R: reel
Z: 2012 John Chambers <jc@trillian.mit.edu>
B: "100 Essential Irish Session Tunes" 1995 Dave Mallinson, ed.
M: 4/4
L: 1/8
K: D
F |\
"D"A,D~D2 A,DFA | "Bm"BFAF EFAB | "G"d2cd BdAF | "Em"GEFD "A7"ECDB, |
"D"A,D~D2 A,DFA | "Bm"BFAF EFAB | "G"dB ((3cBA) "Em"BAGF | "A7"GFEG "D"FD D :|
g |\
"D"fd~d2 fdge | "D"fdgf "A7"edBc | "Bm"dB ((3cBA) Bcde | "Em"fdgf "A7"edeg |
"D"fd~d2 fdge | "D"fdgf "A7"edBc | "G"dB ((3cBA) "Em"BAGF | "A7"GFEG "D"FD D |]
g |\
"D"fd~d2 fdge | "D"fdgf "A7"edBc | "G"dB ((3cBA) Bcde | "Em"fdgf "A7"e3g |
"D"fgaf "A"edBc | "D"defd "G"BAFA | "D"A,D~D2 A,DFA | "G"BF"A"AF "D"D3 |]

%%sep 2 1 500
%%sep 1 1 500

